X:1
T:Hark! ’Tis the Clarion
T:Hark! ’Tis the Clarion
T:From Gaetano Donizetti (1797-1848)
T:Joseph Brown Morgan, 1901
T:Public Domain Courtesy of the Cyber Hymnal™
T:Public Domain Courtesy of the Cyber Hymnal™
C:From Gaetano Donizetti (1797-1848)
Z:Public Domain
Z:Courtesy of the Cyber Hymnal™
%%score ( 1 2 ) ( 3 4 )
L:1/8
Q:1/4=105
M:4/4
K:G
V:1 treble 
V:2 treble 
V:3 bass 
V:4 bass 
V:1
 D2 [DG]>[DB] [Gd]2 [Gd]2 | [Ge]2 [Gd]>[GB] [DG]4 | [CB]2 [CA]>[CF] [CD]2 [CD]2 | E4 D4 | %4
w: 1.~Hark! ’tis the clar- ion|sound- ing the fight,|Turn from each si- ren|charm- er.|
w: 2.~Haste to the res- cue;|souls in their need|Loud for re- lief are|call- ing;|
w: 3.~Soon ’twill be o- ver,|dan- ger all past;|End- ed the march- es|drear- y.|
 D2 [DG]>[DB] [Gd]2 [Gd]2 | [Ge]2 [Gd]>[GB] [DG]4 | [FA]2 [^E^G]>[FA] [Fc]2 [DF]2 | [FA]4 G4 | %8
w: Ban- ners are wav- ing,|swords gleam- ing bright,|Gird on the heav’n- ly|ar- mor.|
w: Must they for ev- er|hope- less- ly plead?|None hear the cry ap-|pal- ling?|
w: Af- ter the war- fare,|rest comes at last,|Sweet rest for sol- diers|wear- y.|
 [FA]2 [FA]>[GB] [Ec]2 [Ec]2 | [EG]2 [EG]>[DA] [DB]4 | [Dd]2 [Dc]>[DA] [Dd]2 [DB]>[DG] | %11
w: Stern is the con- flict,|fierce is the foe;|Cow- ards and trai- tors will|
w: Brok- en in spir- it,|wound- ed by sin,|Foe- men a- round them, and|
w: Crown af- ter con- flict,|ease af- ter pain:|Part- ing shall ne- ver be|
 [DA]2 [Fd]2 D4 | [FA]2 [FA]>[GB] [Ec]2 [Ec]2 | [EG]2 [EG]>[DA] [DB]4 | %14
w: back- ward go:|Brave men are want- ed,|hearts all a- glow,|
w: fear with- in;|Speed ye to help them|free- dom to win;|
w: known a- gain;|Joy ev- er- last- ing|all shall ob- tain,|
 [Dd]2 [Dc]>[DA] [Dd]2 [DB]>[DG] | [Dd]4 [Dd]4 ||"^Refrain" D2 [DG]>[DB] [Gd]2 [Gd]2 | %17
w: Want- ed to bat- tle for|Je- sus.||
w: Speed with the Gos- pel of|Je- sus.|Sol- diers of God, we|
w: All who are faith- ful to|Je- sus.||
 [Ge]2 [Gd]>[GB] [DG]4 | [CB]2 [CA]>[CF] [CD]2 [CD]2 | E4 D4 | G2 [GB]>[Gd] g2 [Gg]2 | %21
w: ||||
w: join you to- day,|Join in your grand en-|dea- vor.|Sol- diers of God, ad-|
w: ||||
 [Gg]2 [Ge]>[Gf] [Gg]2 G>[GA] | [GB]2 [GB]>[Ac] [FA]2 [DA]>[DB] | [DG]4 [DG]4 |] %24
w: |||
w: vance to the fray, For the|truth is tri- umph- ant for|ev- er.|
w: |||
V:2
 D2 x6 | x8 | x8 | E4 D4 | D2 x6 | x8 | x8 | x4 G4 | x8 | x8 | x8 | x4 D4 | x8 | x8 | x8 | x8 || %16
 D2 x6 | x8 | x8 | E4 D4 | G2 (GB) x4 | x6 G3/2 x/ | x8 | x8 |] %24
V:3
 [G,B,]2 [G,B,]>[G,D] [G,B,]2 [G,B,]2 | [C,C]2 [G,B,]>[G,D] [G,B,]4 | %2
 [D,F,]2 [D,F,]>[D,A,] [D,F,]2 [D,F,]2 | [G,B,]4 [G,B,]4 | [G,B,]2 [G,B,]>[G,D] [G,B,]2 [G,B,]2 | %5
 [C,C]2 [G,B,]>[G,D] [G,B,]4 | [D,C]2 [D,C]>[D,C] [D,A,]2 [D,C]2 | [D,C]4 [G,B,]4 | %8
 [D,D]2 [D,D]>[D,G,] [A,,A,]2 [A,,C]2 | [C,C]2 [C,C]>[C,F,] G,4 | %10
 [F,A,]2 [F,A,]>[F,A,] [G,B,]2 [G,B,]>[G,B,] | [F,D]2 [D,D]2 [D,F,]4 | %12
 [D,D]2 [D,D]>[D,G,] [A,,A,]2 [A,,C]2 | [C,C]2 [C,C]>[C,F,] G,4 | %14
 [F,A,]2 [F,A,]>[F,A,] [G,B,]2 [G,B,]>[G,B,] | ([D,F,]2 [E,G,]2) ([F,A,]2 [A,C]2) || %16
 [G,B,]2 [G,B,]>[G,D] [G,B,]2 [G,B,]2 | [C,C]2 [G,B,]>[G,D] [G,B,]4 | %18
 [D,F,]2 [D,F,]>[D,A,] [D,F,]2 [D,F,]2 | [G,B,]4 [G,B,]4 | [G,B,]2 [G,D]>[G,B,] (B,D) [B,,=F]2 | %21
 [C,E]2 [C,C]>[C,D] [C,E]2 [C,E]>[C,E] | [D,D]2 [D,D]>[D,E] [D,C]2 [D,C]>[D,C] | [G,C]4 [G,B,]4 |] %24
V:4
 x8 | x8 | x8 | x8 | x8 | x8 | x8 | x8 | x8 | x4 G,4 | x8 | x8 | x8 | x4 G,4 | x8 | x8 || x8 | x8 | %18
 x8 | x8 | x4 G,2 x2 | x8 | x8 | x8 |] %24

